X:1
T:Fado da Figueira da Foz
T:Fado da Figueira da Foz
T:in "Cantos Populares - 12 Fados para Piano"
T:Editor: Eduardo da Fonseca - Porto [ca. 1900]
%%score { 1 | 2 }
L:1/8
Q:1/4=50
M:2/4
K:F
V:1 treble nm="Piano" snm="Pno."
V:2 bass 
V:1
"^Andante" F/G/ |: A>F D/E/F/D/ | A>G E/^C/E/G/ | A>G E/^C/E/G/ | A>F D/E/F/G/ | A>F D/E/F/D/ | %6
 A>G E/^C/E/G/ | A>G F/E/D/^C/ | D z z A | AA A/B/c/B/ | A2- A/G/G/A/ | (B/>B/c/>B/) AG | %12
 A>F D/E/F/G/ | AA A/B/c/B/ | A2- A/E/E/F/ | A>G F/E/D/^C/ | D2 z A, | D(D/F/ E)D | A2- A/^C/E/G/ | %19
 A>G F/E/D/^C/ | D/E/F/E/ DA, | D(D/F/ E)D | A2- A/^C/E/G/ | A>G F/E/D/^C/ |1 D/E/F/E/ DF/G/ :|2 %25
 D/E/F/E/ D z |] %26
V:2
 z |: D,/A,/F,/A,/ D,/A,/F,/A,/ | E,/A,/G,/A,/ E,/A,/G,/A,/ | E,/A,/G,/A,/ E,/A,/G,/A,/ | %4
 D,/A,/F,/A,/ D,/A,/F,/A,/ | D,/A,/F,/A,/ D,/A,/F,/A,/ | E,/A,/G,/A,/ E,/A,/G,/A,/ | %7
 E,/A,/G,/A,/ E,/A,/G,/A,/ | D,/A,/F,/A,/ D,/A,/F,/A,/ | D,/A,/F,/A,/ D,/A,/F,/A,/ | %10
 E,/A,/G,/A,/ E,/A,/G,/A,/ | E,/A,/G,/A,/ E,/A,/G,/A,/ | D,/A,/F,/A,/ D,/A,/F,/A,/ | %13
 D,/A,/F,/A,/ D,/A,/F,/A,/ | E,/A,/G,/A,/ E,/A,/G,/A,/ | E,/A,/G,/A,/ E,/A,/G,/A,/ | %16
 D,/A,/F,/A,/ D,/A,/F,/A,/ | D,/A,/F,/A,/ D,/A,/F,/A,/ | E,/A,/G,/A,/ E,/A,/G,/A,/ | %19
 E,/A,/G,/A,/ E,/A,/G,/A,/ | D,/A,/F,/A,/ D,/A,/F,/A,/ | D,/A,/F,/A,/ D,/A,/F,/A,/ | %22
 E,/A,/G,/A,/ E,/A,/G,/A,/ | E,/A,/G,/A,/ E,/A,/G,/A,/ |1 D,/A,/F,/A,/ D, z :|2 %25
 D,/A,/F,/A,/ D, z |] %26

